T: Bonnie Kate
M: 4/4
L: 1/8
K: Dmaj
2a. ad(3ddd bd(3ddd | ad(3ddd cdef | ~g3f gbag | fgef d2 |2b. ad(3ddd bd(3ddd | ad(3ddd cdef | g=c(3ccc ac(3ccc | g=c(3ccc cdef | ~g3f gbag | fgef d2 ||
